X:549
T:Reel 549
M:4/4
K:Gmaj
L:1/8
gf|d>G (3GGG dGBd|dgfg edcB|d>G (3GGG dGBd|cBAB c2:|ga|bd'd'e' d'bgb|c'abg agea|bggb c'e'e'c'|d'bab g2ga|bagc' d'e'd'b|c'bc'd' e'c'ac'|bgab gabe'|d'bab g2|
